X:1
T:Snow, LM
T:Snow, LM
T:Frederic Elkanah Snow, 1888
T:Public Domain Courtesy of the Cyber Hymnal™
C:Frederic Elkanah Snow, 1888
Z:Public Domain
Z:Courtesy of the Cyber Hymnal™
%%score ( 1 2 ) ( 3 4 )
L:1/8
Q:1/4=135
M:3/4
K:Eb
V:1 treble 
V:2 treble 
V:3 bass 
V:4 bass 
V:1
 [EG]2 | [EG]4 [FA]2 | [GB]4 [Ge]2 | [EG]4 [Ac]2 | [GB]4 [GB]2 | ([FB]2 [DF]2) [EG]2 | %6
 ([FA]2 [EG]2) [FA]2 | [DB]4 [DF]2 | [EG]4 [GB]2 | (e2 d2) (ec) | [GB]4 [Ge]2 | (e2 d2) (ec) | %12
 [GB]4 [EG]2 | ([EG]2 [FA]2) [GB]2 | [Ac]4 [=Ac]2 | ([GB]2 [DA]2) [DF]2 | E4 |] %17
V:2
 x2 | x6 | x6 | x6 | x6 | x6 | x6 | x6 | x6 | A4 A2 | x6 | A4 A2 | x6 | x6 | x6 | x6 | E4 |] %17
V:3
 [E,B,]2 | [E,B,]4 [E,B,]2 | [E,B,]4 [E,B,]2 | [E,B,]4 [E,A,]2 | [E,B,]4 [E,B,]2 | %5
 [B,,B,]4 [B,,B,]2 | [B,,B,]4 [B,,B,]2 | [D,B,]4 [B,,B,]2 | [E,B,]4 [E,B,]2 | [E,C]4 [E,C]2 | %10
 [E,B,]4 [E,B,]2 | [E,C]4 [E,C]2 | [E,B,]4 [E,B,]2 | B,4 [G,B,]2 | [A,C]4 [=A,C]2 | B,4 [B,,A,]2 | %16
 [E,G,]4 |] %17
V:4
 x2 | x6 | x6 | x6 | x6 | x6 | x6 | x6 | x6 | x6 | x6 | x6 | x6 | (E,2 F,2) x2 | x6 | %15
 (B,2 B,,2) x2 | x4 |] %17

